icons/document-edit.svg

<?xml version="1.0" encoding="UTF-8" standalone="no"?>
<svg
   viewBox="0 0 16 16"
   version="1.1"
   id="svg134"
   sodipodi:docname="document-edit.svg"
   inkscape:version="1.2.2 (b0a8486541, 2022-12-01)"
   xmlns:inkscape="http://www.inkscape.org/namespaces/inkscape"
   xmlns:sodipodi="http://sodipodi.sourceforge.net/DTD/sodipodi-0.dtd"
   xmlns="http://www.w3.org/2000/svg"
   xmlns:svg="http://www.w3.org/2000/svg">
  <sodipodi:namedview
     id="namedview136"
     pagecolor="#ffffff"
     bordercolor="#000000"
     borderopacity="0.25"
     inkscape:showpageshadow="2"
     inkscape:pageopacity="0.0"
     inkscape:pagecheckerboard="0"
     inkscape:deskcolor="#d1d1d1"
     showgrid="false"
     inkscape:zoom="53.3125"
     inkscape:cx="7.6998828"
     inkscape:cy="8.056272"
     inkscape:window-width="922"
     inkscape:window-height="1008"
     inkscape:window-x="0"
     inkscape:window-y="0"
     inkscape:window-maximized="0"
     inkscape:current-layer="svg134" />
  <defs
     id="defs3051">
    <style
       type="text/css"
       id="current-color-scheme">
      .ColorScheme-Text {
        color:#eff0f1;
      }
      </style>
  </defs>
  <path
     style="fill:#696c6e;fill-opacity:1;stroke:none"
     d="M 10.398438 2 L 5.2871094 7.1113281 L 2 10.398438 L 2 14 L 5.6015625 14 L 14 5.6015625 L 10.398438 2 z M 8.3496094 5.4902344 L 10.509766 7.6503906 L 7.3359375 10.826172 L 7.3359375 10.150391 L 6.3222656 10.171875 L 5.2871094 10.171875 L 5.2871094 9.1367188 L 5.2871094 8.5507812 L 6.7285156 7.1113281 L 8.3496094 5.4902344 z M 4.2734375 9.5644531 L 4.2734375 11.185547 L 5.3085938 11.185547 L 6.3007812 11.185547 L 6.3222656 11.837891 L 5.2421875 12.919922 L 3.8007812 12.919922 L 3.0800781 12.199219 L 3.0800781 10.757812 L 4.2734375 9.5644531 z "
     class="ColorScheme-Text"
     id="path132" />
</svg>

<?xml version="1.0" encoding="UTF-8"?>
<svg id="svg134" version="1.1" viewBox="0 0 16 16" xmlns="http://www.w3.org/2000/svg">
 <defs id="defs3051">
  <style id="current-color-scheme" type="text/css">.ColorScheme-Text {
        color:#eff0f1;
      }</style>
 </defs>
 <path id="path132" class="ColorScheme-Text" d="m10.398 2-8.3984 8.3984v3.6016h3.6016l8.3984-8.3984-3.6016-3.6016zm-2.0488 3.4902 2.1602 2.1602-3.1738 3.1758v-0.67578l-1.0137 0.021484h-1.0352v-1.6211l1.4414-1.4395 1.6211-1.6211zm-4.0762 4.0742v1.6211h2.0274l0.021484 0.65234-1.0801 1.082h-1.4414l-0.7207-0.7207v-1.4414l1.1934-1.1934z" fill="#696c6e"/>
</svg>
